packages/components/src/telekom/icons/home/slow-wifi/selected.svg

<?xml version="1.0" encoding="UTF-8"?>
<svg width="24px" height="24px" viewBox="0 0 24 24" version="1.1" xmlns="http://www.w3.org/2000/svg" xmlns:xlink="http://www.w3.org/1999/xlink">
    <title>/svg/icon/home/slow-wifi/selected</title>
    <g id="icon/home/slow-wifi/selected" stroke="none" stroke-width="1" fill="none" fill-rule="evenodd">
        <path d="M12,17 C13.1045695,17 14,17.8954305 14,19 C14,20.1045695 13.1045695,21 12,21 C10.8954305,21 9.99999999,20.1045695 9.99999999,19 C9.99999999,17.8954305 10.8954305,17 12,17 Z M10.92,12.6005 C11.0695,13.283 11.314,13.93 11.643,14.525 C10.1553,14.6428 8.86885749,15.4758313 8.14034048,16.6884315 L8.02999998,16.883 L6.59349998,15.3935 C7.56799998,13.935 9.11999999,12.903 10.92,12.6005 Z M17.9375,5.37499998 C21.0735,5.37499998 23.625,7.92649999 23.625,11.0625 C23.625,14.1985 21.0735,16.75 17.9375,16.75 C14.8015,16.75 12.25,14.1985 12.25,11.0625 C12.25,7.92649999 14.8015,5.37499998 17.9375,5.37499998 Z M11.437,8.01649999 C11.135,8.65849999 10.926,9.35049999 10.8255,10.079 C8.49015216,10.385087 6.44026368,11.588724 5.02370832,13.3297852 L4.83449997,13.5705 L3.42699996,12.111 C5.33349997,9.74149999 8.19999998,8.17999999 11.437,8.01649999 Z M18.4375,8.26049999 L18.4375,10.963 L20.6065,10.963 L20.6065,11.963 L17.4375,11.963 L17.4375,8.26049999 L18.4375,8.26049999 Z M12,3.49999997 C13.469,3.49999997 14.8895,3.70499997 16.2355,4.08699997 C15.1435,4.35399997 14.1475,4.86499997 13.314,5.56749998 C12.881,5.52549998 12.4435,5.49999997 12,5.49999997 C7.98545453,5.49999997 4.3818255,7.25415242 1.90899314,10.0361943 L1.68049996,10.3 L0.286999951,8.85499999 C3.12899996,5.57649998 7.32049998,3.49999997 12,3.49999997 Z" id="Icon" fill="#000000"></path>
    </g>
</svg>

<svg width="24" height="24" xmlns="http://www.w3.org/2000/svg"><path d="M12 17a2 2 0 110 4 2 2 0 010-4zm-1.08-4.4c.15.683.394 1.33.723 1.925a4.495 4.495 0 00-3.503 2.163l-.11.195-1.437-1.49A6.495 6.495 0 0110.92 12.6zm7.018-7.225a5.694 5.694 0 015.687 5.688 5.694 5.694 0 01-5.688 5.687 5.694 5.694 0 01-5.687-5.688 5.694 5.694 0 015.688-5.687zm-6.501 2.641a7.124 7.124 0 00-.611 2.063 8.985 8.985 0 00-5.802 3.25l-.19.241-1.407-1.459a10.976 10.976 0 018.01-4.095zm7 .244v2.703h2.17v1h-3.17V8.26h1zM12 3.5c1.469 0 2.89.205 4.235.587a7.17 7.17 0 00-2.921 1.48 13.463 13.463 0 00-11.405 4.469l-.229.264L.287 8.855A15.459 15.459 0 0112 3.5z" fill-rule="evenodd"/></svg>
